X: 100350
T: JOHN DWIGHT'S PLANTATION DANCE
R: hornpipe
B: K\"ohler's Violin Repository, v.3, 1885 p.240 #2
F: http://www.archive.org/details/klersviolinrepos03rugg
Z: 2012 John Chambers <jc:trillian.mit.edu>
M: 2/4
L: 1/8
K: D
|: vA>df>a | g>af>a | A>df>a | g2f2 | A>df>a | g>af>a | e>fd>e | ((3cdc) B2 :|
|: vf>(dc>d) | (B/c/)d A>d | G>e F>d | E>(gf>e) | f>(dc>d) | (B/c/d) A>d | B>ge>c | d2d'2 :|

%%sep 2 1 500

